_inc/systems/logos/pdp1.svg

<?xml version="1.0" encoding="UTF-8" standalone="no"?><svg viewBox="0 0 2560 332" version="1.1" id="svg1" xmlns="http://www.w3.org/2000/svg" xmlns:svg="http://www.w3.org/2000/svg"><path fill="currentColor" stroke="currentColor" stroke-width=".09" d="M658 0h404.4c6.7.9 13.6.7 20.3 1.4 18.8 1.7 37.5 4.6 55.5 10.4 16.7 5.2 32.7 12.8 46.6 23.4 17.2 13.3 30.3 31.5 38.4 51.6 9.8 24.1 13.4 50.3 13.2 76.2.2 20.8-2.1 41.7-7.6 61.8-5.7 20.1-14.8 39.6-28.4 55.6-14.9 17.6-34.6 30.9-56.3 38.7-25.5 9.3-53 12.6-80.1 12.3-129.7-.1-259.3 0-389 0-5.7 0-11.3 0-16.9-.2-.2-21.4-.1-42.9-.1-64.3 6-.3 12-.2 18-.2h94.7c-.1-67.9-.1-135.8 0-203.8-4.2-.3-8.5-.4-12.7-.3-33.3.1-66.6-.1-99.8.1-.4-20.9-.1-41.8-.2-62.7m184 62.8c-.2 65.1 0 130.1-.1 195.2 0 2.9.1 5.9.2 8.8 59.3-.2 118.6 0 177.9-.1 21.8-.1 43.9.9 65.4-3.3 15.6-2.9 31-8.6 43.1-18.9 10.5-9.3 17.8-21.7 22.1-34.9 3.1-10.8 4.5-22 5.8-33.1 1.3-19.4.8-39.3-4.7-58.2a69.3 69.3 0 0 0-19.1-31.9c-6.8-6.5-15.3-10.7-23.9-14.1-18.7-7.1-38.9-9.2-58.7-9.6-65-.1-130 0-195-.1-4.3 0-8.7 0-13 .2ZM2262 0h178.2c.2 88.9.1 177.8.1 266.8 39.9 0 79.8-.1 119.7 0v64.4c-2.7 0-5.4.1-8 .2-95.3-.1-190.7 0-286 0-5.6 0-11.3 0-16.9-.2-.1-21.5 0-42.9 0-64.3 7.6-.3 15.3-.1 22.9-.2 33.2 0 66.5.1 99.7 0-.2-18.2 0-36.5-.1-54.7.1-49.7-.1-99.4.1-149-4.6-.4-9.1-.5-13.7-.4-31.9.1-63.9-.1-95.8.1-.4-20.9-.1-41.8-.2-62.7ZM0 .8C8.3.5 16.7.7 25 .6h449c5.7 0 11.4-.1 17 .3 19.3 1.6 38.5 7.5 54.2 19 13.6 9.5 23.4 23.6 30.5 38.4 6.9 15.2 9.3 32.1 9.6 48.7.1 11.2-1 22.5-3.8 33.4-2.6 9.9-7 19.2-12.3 27.8-10.3 16.4-26.4 28.7-44.3 35.7-13 5-26.9 7.7-40.9 8-6.6.2-13.3.1-20 .1H203c-5.9 0-11.8-.1-17.7.2.1 18.2.1 36.3 0 54.5H291c6 0 11.9 0 17.9.2 0 21.4.1 42.8 0 64.3-8 .4-15.9.1-23.9.2H18c-6 0-12 0-18-.2v-64.4c37.9-.2 75.8 0 113.7-.1-.1-67.2-.1-134.5 0-201.8-8.2-.6-16.5-.1-24.7-.2-29.7 0-59.3-.2-89 .1V.8M185.3 65c.1 27.9.1 55.9-.1 83.8 3 .1 5.9.2 8.8.1 68-.3 136-.2 204-.2 16.7-.6 33.3-.3 50-.4 8.1 0 16.3.4 24.3-1 9.8-1.8 19.6-6.1 26.4-13.6 4.9-4.7 6.8-11.5 8.2-17.9 1.6-7.5.9-15.3-.9-22.7-1.5-9.4-8.1-17.4-16.3-21.8-9-5.2-19.6-6.3-29.7-6.6-89.7-.1-179.4 0-269-.1-1.9.1-3.8.2-5.7.4ZM1307.2.9c4.6-.4 9.2-.3 13.8-.2 155.3-.1 310.7 0 466-.1 14.9-.3 29.9 2.4 43.9 7.6 10.8 4.2 21 10.4 29.7 18.2 9.9 9.6 17.6 21.4 23.2 33.9 6.3 15.4 8.8 32.1 8.6 48.7.1 17.5-3 35.5-11.4 51-9.1 18.6-25.2 33.5-44.1 41.9-12 5.5-25.1 8.4-38.2 9.6-10.2.7-20.5.5-30.7.5-91.7 0-183.4-.1-275.2 0-.4 11 0 22-.1 33 .1 7.3-.3 14.5.2 21.8 34-.1 68.1 0 102.1-.1 7 .1 14-.1 21 .2.1 21.4.2 42.9 0 64.3-6.7.3-13.3.1-20 .2h-276c-4.3 0-8.5 0-12.8-.3.1-21.4.1-42.7 0-64.1 4.3-.3 8.5-.3 12.8-.3 33.6.1 67.2 0 100.8.1.1-67.3 0-134.6 0-201.9-3.3-.2-6.5-.3-9.8-.3-34.6.2-69.2-.1-103.7.1 0-21.2 0-42.5-.1-63.8m185.6 63.9c-.4 9.4 0 18.8-.1 28.2.1 18.6-.3 37.3.1 55.9 63.1-.2 126.1-.3 189.2-.3 11.6 0 23.3.2 35-.2 15.3-.1 30.6-.1 46 0 8.9.1 18.1-.4 26.5-3.9 10.4-3.8 20.2-11.7 23.2-22.8 3.5-10.9 2.4-22.8-.8-33.6-4.3-11.6-15.7-19.1-27.5-21.5-11.3-2.6-22.9-1.8-34.4-1.9h-237c-6.7 0-13.5-.2-20.2.1Zm469.4 112.1c5.9-.4 11.9-.2 17.8-.2h155c6.7 0 13.4-.2 20.1.1.3 10.1 0 20.1.1 30.2-.1 10.7.2 21.4-.1 32.2-6.4.3-12.7.1-19.1.1h-155c-6.3 0-12.6.3-18.8-.2.1-20.7.1-41.5 0-62.2Z" id="path1" style="fill:#ffffff"/></svg>

<?xml version="1.0" encoding="UTF-8" ?>
<!DOCTYPE svg PUBLIC "-//W3C//DTD SVG 1.1//EN" "http://www.w3.org/Graphics/SVG/1.1/DTD/svg11.dtd">
<svg width="2560pt" height="332pt" viewBox="0 0 2560 332" version="1.1" xmlns="http://www.w3.org/2000/svg">
<path fill="#ffffff" stroke="#ffffff" stroke-width="0.09375" opacity="1.00" d=" M 658.0 0.0 L 1062.4 0.0 C 1069.1 0.9 1076.0 0.7 1082.7 1.4 C 1101.5 3.1 1120.2 6.0 1138.2 11.8 C 1154.9 17.0 1170.9 24.6 1184.8 35.2 C 1202.0 48.5 1215.1 66.7 1223.2 86.8 C 1233.0 110.9 1236.6 137.1 1236.4 163.0 C 1236.6 183.8 1234.3 204.7 1228.8 224.8 C 1223.1 244.9 1214.0 264.4 1200.4 280.4 C 1185.5 298.0 1165.8 311.3 1144.1 319.1 C 1118.6 328.4 1091.1 331.7 1064.0 331.4 C 934.3 331.3 804.7 331.4 675.0 331.4 C 669.3 331.4 663.7 331.4 658.1 331.2 C 657.9 309.8 658.0 288.3 658.0 266.9 C 664.0 266.6 670.0 266.7 676.0 266.7 C 707.6 266.7 739.2 266.7 770.7 266.7 C 770.6 198.8 770.6 130.9 770.7 62.9 C 766.5 62.6 762.2 62.5 758.0 62.6 C 724.7 62.7 691.4 62.5 658.2 62.7 C 657.8 41.8 658.1 20.9 658.0 0.0 M 842.0 62.8 C 841.8 127.9 842.0 192.9 841.9 258.0 C 841.9 260.9 842.0 263.9 842.1 266.8 C 901.4 266.6 960.7 266.8 1020.0 266.7 C 1041.8 266.6 1063.9 267.6 1085.4 263.4 C 1101.0 260.5 1116.4 254.8 1128.5 244.5 C 1139.0 235.2 1146.3 222.8 1150.6 209.6 C 1153.7 198.8 1155.1 187.6 1156.4 176.5 C 1157.7 157.1 1157.2 137.2 1151.7 118.3 C 1148.4 106.2 1141.7 95.0 1132.6 86.4 C 1125.8 79.9 1117.3 75.7 1108.7 72.3 C 1090.0 65.2 1069.8 63.1 1050.0 62.7 C 985.0 62.6 920.0 62.7 855.0 62.6 C 850.7 62.6 846.3 62.6 842.0 62.8 Z" />
<path fill="#ffffff" stroke="#ffffff" stroke-width="0.09375" opacity="1.00" d=" M 2262.0 0.0 L 2440.2 0.0 C 2440.4 88.9 2440.3 177.8 2440.3 266.8 C 2480.2 266.8 2520.1 266.7 2560.0 266.8 L 2560.0 331.2 C 2557.3 331.2 2554.6 331.3 2552.0 331.4 C 2456.7 331.3 2361.3 331.4 2266.0 331.4 C 2260.4 331.4 2254.7 331.4 2249.1 331.2 C 2249.0 309.7 2249.1 288.3 2249.1 266.9 C 2256.7 266.6 2264.4 266.8 2272.0 266.7 C 2305.2 266.7 2338.5 266.8 2371.7 266.7 C 2371.5 248.5 2371.7 230.2 2371.6 212.0 C 2371.7 162.3 2371.5 112.6 2371.7 63.0 C 2367.1 62.6 2362.6 62.5 2358.0 62.6 C 2326.1 62.7 2294.1 62.5 2262.2 62.7 C 2261.8 41.8 2262.1 20.9 2262.0 0.0 Z" />
<path fill="#ffffff" stroke="#ffffff" stroke-width="0.09375" opacity="1.00" d=" M 0.0 0.8 C 8.3 0.5 16.7 0.7 25.0 0.6 C 174.7 0.6 324.3 0.6 474.0 0.6 C 479.7 0.6 485.4 0.5 491.0 0.9 C 510.3 2.5 529.5 8.4 545.2 19.9 C 558.8 29.4 568.6 43.5 575.7 58.3 C 582.6 73.5 585.0 90.4 585.3 107.0 C 585.4 118.2 584.3 129.5 581.5 140.4 C 578.9 150.3 574.5 159.6 569.2 168.2 C 558.9 184.6 542.8 196.9 524.9 203.9 C 511.9 208.9 498.0 211.6 484.0 211.9 C 477.4 212.1 470.7 212.0 464.0 212.0 C 377.0 212.0 290.0 212.0 203.0 212.0 C 197.1 212.0 191.2 211.9 185.3 212.2 C 185.4 230.4 185.4 248.5 185.3 266.7 C 220.5 266.7 255.8 266.7 291.0 266.7 C 297.0 266.7 302.9 266.7 308.9 266.9 C 308.9 288.3 309.0 309.7 308.9 331.2 C 300.9 331.6 293.0 331.3 285.0 331.4 C 196.0 331.4 107.0 331.4 18.0 331.4 C 12.0 331.4 6.0 331.4 0.0 331.2 L 0.0 266.8 C 37.9 266.6 75.8 266.8 113.7 266.7 C 113.6 199.5 113.6 132.2 113.7 64.9 C 105.5 64.3 97.2 64.8 89.0 64.7 C 59.3 64.7 29.7 64.5 0.0 64.8 L 0.0 0.8 M 185.3 65.0 C 185.4 92.9 185.4 120.9 185.2 148.8 C 188.2 148.9 191.1 149.0 194.0 148.9 C 262.0 148.6 330.0 148.7 398.0 148.7 C 414.7 148.1 431.3 148.4 448.0 148.3 C 456.1 148.3 464.3 148.7 472.3 147.3 C 482.1 145.5 491.9 141.2 498.7 133.7 C 503.6 129.0 505.5 122.2 506.9 115.8 C 508.5 108.3 507.8 100.5 506.0 93.1 C 504.5 83.7 497.9 75.7 489.7 71.3 C 480.7 66.1 470.1 65.0 460.0 64.7 C 370.3 64.6 280.6 64.7 191.0 64.6 C 189.1 64.7 187.2 64.8 185.3 65.0 Z" />
<path fill="#ffffff" stroke="#ffffff" stroke-width="0.09375" opacity="1.00" d=" M 1307.2 0.9 C 1311.8 0.5 1316.4 0.6 1321.0 0.7 C 1476.3 0.6 1631.7 0.7 1787.0 0.6 C 1801.9 0.3 1816.9 3.0 1830.9 8.2 C 1841.7 12.4 1851.9 18.6 1860.6 26.4 C 1870.5 36.0 1878.2 47.8 1883.8 60.3 C 1890.1 75.7 1892.6 92.4 1892.4 109.0 C 1892.5 126.5 1889.4 144.5 1881.0 160.0 C 1871.9 178.6 1855.8 193.5 1836.9 201.9 C 1824.9 207.4 1811.8 210.3 1798.7 211.5 C 1788.5 212.2 1778.2 212.0 1768.0 212.0 C 1676.3 212.0 1584.6 211.9 1492.8 212.0 C 1492.4 223.0 1492.8 234.0 1492.7 245.0 C 1492.8 252.3 1492.4 259.5 1492.9 266.8 C 1526.9 266.7 1561.0 266.8 1595.0 266.7 C 1602.0 266.8 1609.0 266.6 1616.0 266.9 C 1616.1 288.3 1616.2 309.8 1616.0 331.2 C 1609.3 331.5 1602.7 331.3 1596.0 331.4 C 1504.0 331.4 1412.0 331.4 1320.0 331.4 C 1315.7 331.4 1311.5 331.4 1307.2 331.1 C 1307.3 309.7 1307.3 288.4 1307.2 267.0 C 1311.5 266.7 1315.7 266.7 1320.0 266.7 C 1353.6 266.8 1387.2 266.7 1420.8 266.8 C 1420.9 199.5 1420.8 132.2 1420.8 64.9 C 1417.5 64.7 1414.3 64.6 1411.0 64.6 C 1376.4 64.8 1341.8 64.5 1307.3 64.7 C 1307.3 43.5 1307.3 22.2 1307.2 0.9 M 1492.8 64.8 C 1492.4 74.2 1492.8 83.6 1492.7 93.0 C 1492.8 111.6 1492.4 130.3 1492.8 148.9 C 1555.9 148.7 1618.9 148.6 1682.0 148.6 C 1693.6 148.6 1705.3 148.8 1717.0 148.4 C 1732.3 148.3 1747.6 148.3 1763.0 148.4 C 1771.9 148.5 1781.1 148.0 1789.5 144.5 C 1799.9 140.7 1809.7 132.8 1812.7 121.7 C 1816.2 110.8 1815.1 98.9 1811.9 88.1 C 1807.6 76.5 1796.2 69.0 1784.4 66.6 C 1773.1 64.0 1761.5 64.8 1750.0 64.7 C 1671.0 64.7 1592.0 64.7 1513.0 64.7 C 1506.3 64.7 1499.5 64.5 1492.8 64.8 Z" />
<path fill="#ffffff" stroke="#ffffff" stroke-width="0.09375" opacity="1.00" d=" M 1962.2 176.9 C 1968.1 176.5 1974.1 176.7 1980.0 176.7 C 2031.7 176.7 2083.3 176.7 2135.0 176.7 C 2141.7 176.7 2148.4 176.5 2155.1 176.8 C 2155.4 186.9 2155.1 196.9 2155.2 207.0 C 2155.1 217.7 2155.4 228.4 2155.1 239.2 C 2148.7 239.5 2142.4 239.3 2136.0 239.3 C 2084.3 239.3 2032.7 239.3 1981.0 239.3 C 1974.7 239.3 1968.4 239.6 1962.2 239.1 C 1962.3 218.4 1962.3 197.6 1962.2 176.9 Z" />
</svg>
